assets/Turkey/Flat/turkey_flat.svg

<svg width="32" height="32" viewBox="0 0 32 32" fill="none" xmlns="http://www.w3.org/2000/svg">
<path d="M11.79 29L12.3906 24.6875H14.0313L13.3844 29H15.7743L16.375 24.6875H18.0156L17.3688 29H18.9063C19.2945 29 19.8513 29.2183 19.9856 29.7446C20.0198 29.8784 19.9037 29.9922 19.7656 29.9922H8.26564C8.12757 29.9922 8.01228 29.8792 8.03715 29.7434C8.11282 29.33 8.39806 29 9.04689 29H11.79Z" fill="#9B9B9B"/>
<path d="M27.7031 2H28.2969C29.2375 2 30 2.76252 30 3.70312C30 4.44804 29.5218 5.08126 28.8556 5.3125C29.5218 5.54374 30 6.17696 30 6.92188C30 7.86248 29.2375 8.625 28.2969 8.625C29.2375 8.625 30 9.38752 30 10.3281C30 11.0345 29.5699 11.6405 28.9574 11.8984C29.5699 12.1564 30 12.7624 30 13.4688C30 14.2721 29.4437 14.9456 28.6954 15.125C29.4437 15.3044 30 15.9779 30 16.7812C30 17.5347 29.5107 18.1739 28.8325 18.3984C29.5107 18.6229 30 19.2621 30 20.0156C30 20.9562 29.2375 21.7188 28.2969 21.7188H28.3594C29.2655 21.7188 30 22.4533 30 23.3594C30 24.2655 29.2655 25 28.3594 25H24.2188V21.7188H27.2812V5.21875H27.7031V2Z" fill="#F3AD61"/>
<path d="M2.03125 14.5938V18.5H5.29688L8.23438 9.21875C8.75 7.82812 9.29688 5.01562 6.625 5.01562C4.34375 5.01562 4.84896 7.83333 5.39062 9.21875C5.84375 10.375 5.875 11.8594 4.625 12.0156C2.51641 12.2792 2.04167 13.7292 2.03125 14.5938Z" fill="#F70A8D"/>
<path d="M2.88013 7.14459L4.49999 5.95312V8.76562L2.878 7.54578C2.74413 7.4451 2.7452 7.24384 2.88013 7.14459Z" fill="#F9C23C"/>
<path d="M4.29688 6.07812C4.29688 5.80198 4.52073 5.57812 4.79688 5.57812C5.07302 5.57812 5.29688 5.80198 5.29688 6.07812V9.5C5.29688 9.77614 5.07302 10 4.79688 10C4.52073 10 4.29688 9.77614 4.29688 9.5V6.07812Z" fill="#FF6DC6"/>
<path d="M7.03125 6.52344C7.03125 6.79958 6.80739 7.02344 6.53125 7.02344C6.25511 7.02344 6.03125 6.79958 6.03125 6.52344C6.03125 6.2473 6.25511 6.02344 6.53125 6.02344C6.80739 6.02344 7.03125 6.2473 7.03125 6.52344Z" fill="#1C1C1C"/>
<path d="M8.09114 25C6.03983 24.8535 2 23.5714 2 18.0769C2 15.0036 4.35482 13.3359 6.66255 12.1429C7.35567 11.7845 7.53038 11.578 7.68297 11.1538C8.54371 8.76104 11.6705 5 17.0395 5C18.125 5 19.1374 5.18643 20.0732 5.5175C20.4056 4.28614 21.7863 3.34433 22.4579 2.90872C23.5947 2.17145 25.6075 1.99995 28 2V18.0722C28 18.0786 28 18.085 28 18.0914V19.2657C28 20.0876 27.9206 21.0359 27.7085 21.9218C27.4072 23.3389 26.7988 24.5201 25.5754 24.8841C25.3406 24.9594 25.0848 25 24.8063 25L8.09114 25Z" fill="#6D4534"/>
<path d="M21.8524 16.5635C23.5789 18.143 25.4061 19.8658 26.5054 20.9238C27.7112 22.1278 27.378 23.2936 27.0728 23.7724C26.5211 24.6381 25.5596 25 25.1183 25H16.1966C15.9542 25 15.7069 24.9956 15.4564 24.9854L21.8524 16.5635Z" fill="#D3883E"/>
<path d="M21.8525 16.5634C20.831 15.6289 19.8447 14.7444 19.0654 14.0775C17.0615 12.3625 15.0144 12 14.0844 12C9.41864 12 8 16.3753 8 17.9491C8 23.6256 12.0251 24.8456 15.4564 24.9854C19.1097 24.7502 22 21.7126 22 18C22 17.5076 21.9492 17.0271 21.8525 16.5634Z" fill="#A56953"/>
</svg>

<svg xmlns="http://www.w3.org/2000/svg" width="32" height="32" fill="none"><path fill="#9B9B9B" d="m11.79 29 .6-4.313h1.641L13.384 29h2.39l.601-4.313h1.64L17.37 29h1.537c.389 0 .945.218 1.08.745.034.133-.082.247-.22.247h-11.5c-.138 0-.254-.113-.229-.249.076-.413.361-.743 1.01-.743h2.743Z"/><path fill="#F3AD61" d="M27.703 2h.594a1.703 1.703 0 0 1 .559 3.313 1.704 1.704 0 0 1-.56 3.312 1.703 1.703 0 0 1 .661 3.273 1.704 1.704 0 0 1-.262 3.227 1.704 1.704 0 0 1 .137 3.273 1.704 1.704 0 0 1-.535 3.32h.062a1.64 1.64 0 1 1 0 3.282h-4.14v-3.281h3.062v-16.5h.422V2Z"/><path fill="#F70A8D" d="M2.031 14.594V18.5h3.266l2.937-9.281c.516-1.39 1.063-4.203-1.609-4.203-2.281 0-1.776 2.817-1.234 4.203.453 1.156.484 2.64-.766 2.797-2.109.263-2.583 1.713-2.594 2.578Z"/><path fill="#F9C23C" d="M2.88 7.145 4.5 5.953v2.813l-1.622-1.22a.25.25 0 0 1 .002-.401Z"/><path fill="#FF6DC6" d="M4.297 6.078a.5.5 0 1 1 1 0V9.5a.5.5 0 0 1-1 0V6.078Z"/><path fill="#1C1C1C" d="M7.031 6.523a.5.5 0 1 1-1 0 .5.5 0 0 1 1 0Z"/><path fill="#6D4534" d="M8.091 25C6.04 24.854 2 23.571 2 18.077c0-3.073 2.355-4.741 4.663-5.934.693-.359.867-.565 1.02-.99C8.543 8.762 11.671 5 17.04 5c1.085 0 2.097.186 3.033.518.333-1.232 1.713-2.174 2.385-2.61C23.595 2.172 25.608 2 28 2v17.266c0 .822-.08 1.77-.291 2.656-.302 1.417-.91 2.598-2.134 2.962-.234.075-.49.116-.769.116H8.091Z"/><path fill="#D3883E" d="M21.852 16.564a277.84 277.84 0 0 1 4.653 4.36c1.206 1.204.873 2.37.568 2.848C26.52 24.638 25.56 25 25.118 25h-8.921c-.243 0-.49-.004-.74-.015l6.395-8.421Z"/><path fill="#A56953" d="M21.852 16.563a120.173 120.173 0 0 0-2.787-2.485C17.061 12.363 15.015 12 14.085 12 9.418 12 8 16.375 8 17.95c0 5.676 4.025 6.896 7.456 7.035a7 7 0 0 0 6.396-8.422Z"/></svg>
